X: 2021
T: the MAIDS OF ISLAY
R: Strathspey.
%R: strathspey
B: James Kerr "Merry Melodies" v.2 p.5 #21
Z: 2016 John Chambers <jc:trillian.mit.edu>
M: C
L: 1/8
K: A
|:\
vA<A ve>uc ve>vfue>uc | A<A e>c f>e c2 |\
A<A e>c e>fe>c | f>ga>f (e<c) B2 ::\
a>ba>f e>fe>c | a>ba>f (e<f) c2 |\
a>ba>f e>fe>c | f>ga>f (e<c) B2 :|
